X: 19477
T: Jackson's Morning Brush
R: jig
M: 6/8
K: Dmajor
D2F E2F|DFA AFA|BAB def|gfg ecA|
D2F E2F|DFA AFA|BAB d2e|fdd d3:|
|:fed faf|gbg faf|fed faf|gfg e2g|
fed faf|gbg fed|BAB d2e|fdd d3:|

